X:4
T:Sturmvogler Heimfari (Cherus)  CF (5letras transposed)
%%MIDI program 21
R:
M:2/4
L:1/8
K:C transpose=3 %%MIDI gchordon
!>!"G"G2!>!A2 | !>!B2!>!c2 | de fe | d2z2 || "C"EG AG | c/2B/2A/2G/2"G7"F2 | "Dm"FA BA | \
"G7"d/2c/2B/2A/2 G/2^F/2G/2=F/2 |
 "C"EG AG | "G"G/2^F/2G/2A/2 B2 | dB BG | "D7"A/2D/2E/2^F/2 "G7"G=F || "C"cB AE/2G/2 | \
"G7"F2.D2 | BA GD/2^D/2 |
 "C"E2.C2 | "F"FA "C"Gc | "G7"BF "C"AG | "F"FA "C"Gc | "G7"c/2B/2A/2B/2"C"c2 || [K:F] \
"F"A2GF | "Gm"ED G>F | "C7"E2DB, |
 "F"D2.C2 | CD EF | "C7"^F>GC2 | \
DE FG | "F"A>cF2 | CD EF | "Gm"A>GD2 | "C7"B>A G/2C/2D/2E/2 | "F"F3z |] 
% ch00803

